X:1
T:Title
%%score [ 1 2 3 4 ]
L:1/8
Q:1/4=194
M:2/2
K:C
V:1 treble nm="Soprano" snm="S"
V:2 treble nm="Alto" snm="A"
V:3 treble-8 nm="Tenor" snm="T"
V:4 bass nm="Bass" snm="B"
V:1
 z8 | z8 | G8 | c8 | B6 AG | A2 G3 FED | C4 z2 c2- | c2 B2 A4 | G8 | z4 c4 | c4 c4 | B2 A4 GF | %12
w: ||Pour-|quoi|non, * *||* Pour-|* * quoi|non,|Ne|veuil- je|mou- * * *|
 E8- | E8- | E8 | z8 | z8 | z8 | G8 | c8 | B6 AG | A2 G3 FED | C4 c4 | A2 d3 cBA | G8 | z4 B4 | %26
w: rir?||||||Pour-|quoi|non, * *||* Pour-|quoi * * * *|non,|Ne|
 B4 B4 | A2 G4 c2- | c2 B2 c4 | z2 B2 c4 | z2 B2 c2 A2- | A2 GF G2 E2 | FEDC D4 | C8 | F8 | %35
w: dois je|qué- * *|* * rir,|qué- rir,|Ne * dois-|* * * * je|qué- * * * *|rir,|La|
 E4 z2 G2 | A4 c4 | B4 A4 | d6 c2 | B4 A4 | G8 | F8 | E8 | z4 A4 | A2 A4 F2- | F2 ED E4 | %46
w: fin de|ma *|do- *|len- *|* te|vi-||e.|Quand|j'ai- me qui|* ne * m'ai-|
 D4 z2 d2- | dc B2 A2 G2 | ^F2 G4 F2 | G8 | z4 F4 | D4 D4 | C4 G4 | F4 F4 | E4 z2 B2 | c4 d4 | %56
w: me, Quand||* j'ai- *|me,|Quand|j'ai- me|qui ne|m'ai- me|mie, Et|sers *|
 e6 dc | B4 c2 B2- | B2 AG A2 G2 | d4 c2 B2- | B2 AG ^F4 | z4 z2 A2- | A2 GA _B2 A2- | A2 GF E4 | %64
w: sans * *|* guer- *|* * * don *|ac- * qué-|* * * rir,|ac-|* * * * qué-|* * * rir,|
 D2 A4 GA | _B2 A2 GF A2- | A2 G4 ^F2 | G8 |] %68
w: * ac- * *||* qué- *|rir.|
V:2
 C8 | F8 | E4 C4- | C2 D2 E2 F2 | G6 FE | F2 E2 G4 | z2 C3 D E2- | E2 DC D4 | E8 | z4 G4 | G4 G4 | %11
w: Pour-|quoi|non, Pour-|||quoi * non,|Pour- * *|* * * quoi|non,|Ne|veuil- je|
 F4 E4 | z2 G,4 A,2 | C3 B, A,2 G,2 | C8 | C8 | C8 | F8 | E4 C4- | C2 D2 E2 F2 | G6 FE | F2 E2 G4 | %22
w: mou- rir?|Ne *|veuil- * je mou-|rir?|Pour-|quoi|non,|Pour- *|||quoi * non,|
 z2 C3 D E2- | E2 DC D4 | E8 | z4 D4 | G4 G4 | E3 F G4- | G4 z2 F2 | G4 E2 F2 | G4 C4 | A,4 B,4 | %32
w: Pour- * *|* * * quoi|non,|Ne|dois je|qué- * rir,|* qué-|rir, Ne *|dois- je|qué- rir,|
 z2 G,4 G2- | G2 F2 E4 | D8 | C6 B,2 | C2 D2 E4 | z4 A,4 | G,6 A,2 | B,2 G,2 A,4 | B,4 C4 | A,8- | %42
w: qué- *|* * rir,|La|fin *||de|ma *|do- * len-|te vi-|e.|
 A,8 | z4 z2 A2- | AG F2 E2 D2 | C2 D4 ^C2 | D8 | z8 | z4 D4 | B,4 C4 | G8 | F4 F4 | E4 C3 B, | %53
w: |Quand||* j'ai- *|me,||Quand||j'ai-|me qui|* ne *|
 A,4 _B,4 | G,8 | z4 D4 | C2 E4 F2 | G6 FE | D4 E4 | D4 z4 | z2 A,2 A,4 | A,4 z2 D2 | D4 D4 | %63
w: m'ai- me|mie,|Et|* sers *|sans * *|guer- *|don,|sans guer-|don, sans|guer- don,|
 z2 A,4 G,A, | _B,2 A,2 D3 E | F4 z4 | z2 D2 D4 | D8 |] %68
w: ac- * *|* * qué- *|rir,|ac- qué-|rir.|
V:3
 z8 | z8 | z8 | z8 | G8 | c6 B2 | A4 G4 | A8 | B8 | z4 e4 | e4 e4 | d2 c4 B2 | c4 z2 c2 | %13
w: ||||Pour-|quoi *|||non,|Ne|veuil- je|mou- * *|rir? Ne|
 A2 G2 c4 | G8 | z8 | z8 | z8 | z8 | z8 | G8 | c6 B2 | A4 G4 | A8 | B8 | z4 B4 | d4 d4 | e6 dc | %28
w: veuil- je mou-|rir?||||||Pour-|quoi *|||non,|Ne|dois- je|qué- * *|
 d4 z2 c2 | d4 z2 c2 | d3 c A4 | c3 d e3 d | B2 c4 B2 | c8 | F8 | A3 G G4 | z4 c4 | d8- | d8 | %39
w: rir, qué-|rir, Ne|dois- * je,|ne * dois- *|je qué- *|rir,|La|* * fin|de|ma||
 d4 d4 | e8 | d8 | c8- | c8 | z8 | z8 | z4 d4 | d2 d4 B2- | B2 AG A4 | G8- | G8 | z8 | z4 e4 | %53
w: do- len-|te|vi-|e.||||Quand|j'ai- me qui|* ne * m'ai-|me,|||Quand|
 d4 d4 | c4 g4 | f4 f4 | e4 c4 | d2 e4 dc | B4 c4 | B4 e4 | z2 d4 cd | e2 d4 cB | A4 G2 d2 | %63
w: j'ai- me|qui ne|m'ai- me|mie, Et||sers sans|guer- don|ac- * *|* qué- * *|* rir, ac-|
 e2 d4 ^c2 | d4 z2 d2- | d2 cd e2 d2- | d2 cB A4 | G8 |] %68
w: * qué- *|rir, ac-||* * * qué-|rir.|
V:4
 z8 | z8 | z8 | z8 | z8 | z8 | C,8 | F,8 | E,8 | z4 C,4 | C,4 C,4 | D,8 | C,8- | C,8- | C,8 | z8 | %16
w: ||||||Pour-|quoi|non,|Ne|veuil- je|mou-|rir?||||
 z8 | z8 | z8 | z8 | z8 | z8 | C,8 | F,8 | E,8 | z4 G,4 | G,4 G,4 | C,8 | G,4 A,4 | z2 G,2 A,4 | %30
w: ||||||Pour-|quoi|non,|Ne|dois- je|qué-|* rir,|qué- rir,|
 G,4 F,4- | F,4 E,4 | D,2 C,2 G,4 | C,8 | _B,,8 | C,8 | z4 C,4 | G,4 G,4 | _B,6 A,2 | G,4 G,4 | %40
w: Ne dois-|* je|* * qué-|rir,|La|fin|de|ma do-|len- *|te vi-|
 E,4 C,4 | D,8 | z4 A,4 | A,2 A,4 F,2- | F,2 E,D, C,2 D,2 | A,2 _B,2 A,4 | D,8 | z8 | z4 D,4 | %49
w: |e.|Quand|j'ai- me qui||ne * m'ai-|me,||Quand|
 E,4 C,4- | C,2 B,,2 C,4 | D,4 _B,,4 | C,4 z2 C,2 | D,4 _B,,4 | C,2 E,3 F, G,2 | A,4 _B,4 | %56
w: * j'ai-|* me qui|ne m'ai-|me, Quand|j'ai- me|qui ne * *|m'ai- me|
 C6 B,A, | G,4 z2 G,2 | G,4 z4 | z2 B,2 A,2 G,2- | G,2 ^F,E, D,4 | z2 D,2 D,4 | D,4 z2 D,2 | %63
w: mi- * *|e, Et|sers,|sans * guer-|* * * don,|sans guer-|don ac-|
 C,2 D,2 A,4 | D,4 z2 D,2 | D,4 z2 D,2 | D,4 D,4 | G,8 |] %68
w: * * qué-|rir, et|sers, sans|ac- qué-|rir.|

